X: 433
%
U:~=!turn!
T: Miss Susan Gordon
C:Marshall
O:Scotland
B:Keith Norman MacDonald : "The Skye collection of the best reels & strathspeys extant" : 1887
Z:Ralph Palmer
R:Reel
M:C|
L:1/8
K:D aeolian
f | TF2 FB A(B/c/) (cf) | af{/d}cB ABcA | {/F}G2 GB B(c/d/) (dg) | (ba)Tgf efge |
TF2 FB A(B/c/) (cf) | af{/d}cB ABcA | BdBd AcAc | GABc {Bc}d2 d ||
f| cfAf cfAf cfaf {/d}cBAc | dg=Bg dgBg | dg(ba) T(gf)ef |
cfAf cfAf | cfaf {/d}cBAc | BdBd AcAc | GABc {Bc}d2 d |]


